public/assets/icons/mobile.svg

<?xml version="1.0" encoding="iso-8859-1"?>
<!-- Generator: Adobe Illustrator 19.0.0, SVG Export Plug-In . SVG Version: 6.00 Build 0)  -->
<svg fill="#40e0d0" version="1.1" id="Capa_1" xmlns="http://www.w3.org/2000/svg" xmlns:xlink="http://www.w3.org/1999/xlink" x="0px" y="0px"
	 viewBox="0 0 512 512" style="enable-background:new 0 0 512 512;" xml:space="preserve">
<g>
	<g>
		<path d="M366,0H146c-20.678,0-37.5,16.822-37.5,37.5v437c0,20.678,16.822,37.5,37.5,37.5h220c20.678,0,37.5-16.822,37.5-37.5v-437
			C403.5,16.822,386.678,0,366,0z M388.5,407H176c-4.142,0-7.5,3.358-7.5,7.5c0,4.142,3.358,7.5,7.5,7.5h212.5v52.5
			c0,12.407-10.093,22.5-22.5,22.5H146c-12.407,0-22.5-10.093-22.5-22.5V422H146c4.142,0,7.5-3.358,7.5-7.5
			c0-4.142-3.358-7.5-7.5-7.5h-22.5V75h265V407z M388.5,60h-265V37.5c0-12.407,10.093-22.5,22.5-22.5h220
			c12.407,0,22.5,10.093,22.5,22.5V60z"/>
	</g>
</g>
<g>
	<g>
		<path d="M286,30h-30c-4.142,0-7.5,3.358-7.5,7.5c0,4.142,3.358,7.5,7.5,7.5h30c4.142,0,7.5-3.358,7.5-7.5
			C293.5,33.358,290.142,30,286,30z"/>
	</g>
</g>
<g>
	<g>
		<path d="M256,437c-12.407,0-22.5,10.093-22.5,22.5c0,12.407,10.093,22.5,22.5,22.5s22.5-10.093,22.5-22.5
			C278.5,447.093,268.407,437,256,437z M256,467c-4.136,0-7.5-3.364-7.5-7.5s3.364-7.5,7.5-7.5s7.5,3.364,7.5,7.5
			S260.136,467,256,467z"/>
	</g>
</g>
<g>
	<g>
		<circle cx="226" cy="37.5" r="7.5"/>
	</g>
</g>
<g>
</g>
<g>
</g>
<g>
</g>
<g>
</g>
<g>
</g>
<g>
</g>
<g>
</g>
<g>
</g>
<g>
</g>
<g>
</g>
<g>
</g>
<g>
</g>
<g>
</g>
<g>
</g>
<g>
</g>
</svg>

<svg id="Capa_1" data-name="Capa 1" xmlns="http://www.w3.org/2000/svg" viewBox="0 0 295 512"><defs><style>.cls-1{fill:#40e0d0;}</style></defs><path class="cls-1" d="M366,0H146a37.542,37.542,0,0,0-37.5,37.5v437A37.542,37.542,0,0,0,146,512H366a37.542,37.542,0,0,0,37.5-37.5V37.5A37.542,37.542,0,0,0,366,0Zm22.5,407H176a7.5,7.5,0,0,0,0,15H388.5v52.5A22.525,22.525,0,0,1,366,497H146a22.525,22.525,0,0,1-22.5-22.5V422H146c1.516,0,28.667.57,34.7-.2,10.457-1.343,1.391-4.678,1.391-7.3,0-2.695,9.549-5.985-1.043-7.305-5.689-.708-33.6-.186-35.052-.186H123.5V75h265Zm0-347h-265V37.5A22.525,22.525,0,0,1,146,15H366a22.525,22.525,0,0,1,22.5,22.5Z" transform="translate(-108.5)"/><path class="cls-1" d="M286,30H256a7.5,7.5,0,0,0,0,15h30a7.5,7.5,0,0,0,0-15Z" transform="translate(-108.5)"/><path class="cls-1" d="M256,437a22.5,22.5,0,1,0,22.5,22.5A22.525,22.525,0,0,0,256,437Zm0,30a7.5,7.5,0,1,1,7.5-7.5A7.508,7.508,0,0,1,256,467Z" transform="translate(-108.5)"/><circle class="cls-1" cx="117.5" cy="37.5" r="7.5"/></svg>
